svg/color/iron.svg

<?xml version="1.0" encoding="UTF-8" ?>
<!DOCTYPE svg PUBLIC "-//W3C//DTD SVG 1.1//EN" "http://www.w3.org/Graphics/SVG/1.1/DTD/svg11.dtd">
<svg width="250pt" height="250pt" viewBox="0 0 250 250" version="1.1" xmlns="http://www.w3.org/2000/svg">
<g id="#ffffffff">
<path fill="#ffffff" opacity="1.00" d=" M 0.00 0.00 L 119.25 0.00 C 85.86 1.69 53.30 17.03 31.31 42.29 C 12.71 63.09 1.91 90.27 0.00 118.02 L 0.00 0.00 Z" />
<path fill="#ffffff" opacity="1.00" d=" M 131.17 0.00 L 250.00 0.00 L 250.00 118.74 C 248.32 90.73 237.43 63.27 218.69 42.30 C 196.79 17.13 164.41 1.84 131.17 0.00 Z" />
<path fill="#ffffff" opacity="1.00" d=" M 34.79 62.29 C 86.18 61.98 137.58 62.24 188.97 62.16 C 197.61 62.25 206.25 61.96 214.88 62.33 C 204.68 67.57 194.99 73.77 184.84 79.10 C 145.91 79.42 106.94 79.11 67.99 79.26 C 66.50 79.20 64.88 79.46 63.58 78.56 C 53.97 73.16 44.50 67.51 34.79 62.29 Z" />
<path fill="#ffffff" opacity="1.00" d=" M 32.45 66.90 C 41.71 71.72 50.61 77.21 59.75 82.25 C 62.11 83.21 63.07 85.65 64.26 87.70 C 83.54 121.26 103.05 154.68 122.22 188.29 C 122.59 199.70 122.31 211.15 122.35 222.57 C 92.35 170.70 62.46 118.77 32.45 66.90 Z" />
<path fill="#ffffff" opacity="1.00" d=" M 189.42 82.54 C 198.70 77.16 208.12 71.99 217.34 66.51 C 208.12 83.43 198.14 99.93 188.62 116.68 C 168.29 152.01 147.78 187.24 127.56 222.63 C 127.34 212.41 127.55 202.19 127.44 191.98 C 127.53 190.38 127.15 188.61 128.13 187.21 C 147.30 154.03 166.45 120.85 185.59 87.66 C 186.73 85.87 187.45 83.61 189.42 82.54 Z" />
<path fill="#ffffff" opacity="1.00" d=" M 77.46 89.65 C 109.07 89.61 140.67 89.65 172.28 89.63 C 156.79 116.71 141.11 143.68 125.55 170.72 C 125.26 170.75 124.68 170.83 124.39 170.86 C 108.70 143.82 93.17 116.68 77.46 89.65 Z" />
<path fill="#ffffff" opacity="1.00" d=" M 0.00 130.71 C 1.02 147.33 4.95 163.83 12.20 178.85 C 24.58 204.95 46.32 226.42 72.58 238.47 C 86.82 245.17 102.38 248.71 118.02 250.00 L 0.00 250.00 L 0.00 130.71 Z" />
<path fill="#ffffff" opacity="1.00" d=" M 219.17 207.15 C 237.65 186.24 248.36 158.96 250.00 131.17 L 250.00 250.00 L 130.08 250.00 C 163.95 248.54 197.03 232.89 219.17 207.15 Z" />
</g>
<g id="#f27520ff">
<path fill="#f27520" opacity="1.00" d=" M 119.25 0.00 L 131.17 0.00 C 164.41 1.84 196.79 17.13 218.69 42.30 C 237.43 63.27 248.32 90.73 250.00 118.74 L 250.00 131.17 C 248.36 158.96 237.65 186.24 219.17 207.15 C 197.03 232.89 163.95 248.54 130.08 250.00 L 118.02 250.00 C 102.38 248.71 86.82 245.17 72.58 238.47 C 46.32 226.42 24.58 204.95 12.20 178.85 C 4.95 163.83 1.02 147.33 0.00 130.71 L 0.00 118.02 C 1.91 90.27 12.71 63.09 31.31 42.29 C 53.30 17.03 85.86 1.69 119.25 0.00 M 34.79 62.29 C 44.50 67.51 53.97 73.16 63.58 78.56 C 64.88 79.46 66.50 79.20 67.99 79.26 C 106.94 79.11 145.91 79.42 184.84 79.10 C 194.99 73.77 204.68 67.57 214.88 62.33 C 206.25 61.96 197.61 62.25 188.97 62.16 C 137.58 62.24 86.18 61.98 34.79 62.29 M 32.45 66.90 C 62.46 118.77 92.35 170.70 122.35 222.57 C 122.31 211.15 122.59 199.70 122.22 188.29 C 103.05 154.68 83.54 121.26 64.26 87.70 C 63.07 85.65 62.11 83.21 59.75 82.25 C 50.61 77.21 41.71 71.72 32.45 66.90 M 189.42 82.54 C 187.45 83.61 186.73 85.87 185.59 87.66 C 166.45 120.85 147.30 154.03 128.13 187.21 C 127.15 188.61 127.53 190.38 127.44 191.98 C 127.55 202.19 127.34 212.41 127.56 222.63 C 147.78 187.24 168.29 152.01 188.62 116.68 C 198.14 99.93 208.12 83.43 217.34 66.51 C 208.12 71.99 198.70 77.16 189.42 82.54 M 77.46 89.65 C 93.17 116.68 108.70 143.82 124.39 170.86 C 124.68 170.83 125.26 170.75 125.55 170.72 C 141.11 143.68 156.79 116.71 172.28 89.63 C 140.67 89.65 109.07 89.61 77.46 89.65 Z" />
</g>
</svg>

<?xml version="1.0" encoding="utf-8"?>
<!-- Generator: Adobe Illustrator 26.0.3, SVG Export Plug-In . SVG Version: 6.00 Build 0)  -->
<svg version="1.1" id="Layer_1" xmlns="http://www.w3.org/2000/svg" xmlns:xlink="http://www.w3.org/1999/xlink" x="0px" y="0px"
	 viewBox="0 0 250 250" style="enable-background:new 0 0 250 250;" xml:space="preserve">
<style type="text/css">
	.st0{fill:#FFFFFF;}
	.st1{fill:#F27520;}
</style>
<g id="_x23_ffffffff">
	<path class="st0" d="M0,0h119.2C85.9,1.7,53.3,17,31.3,42.3C12.7,63.1,1.9,90.3,0,118"/>
	<path class="st0" d="M34.8,62.3c51.4-0.3,102.8,0,154.2-0.1c8.6,0.1,17.3-0.2,25.9,0.2c-10.2,5.2-19.9,11.4-30,16.8
		c-38.9,0.3-77.9,0-116.8,0.2c-1.5-0.1-3.1,0.2-4.4-0.7C54,73.2,44.5,67.5,34.8,62.3z"/>
	<path class="st0" d="M32.5,66.9c9.3,4.8,18.2,10.3,27.3,15.3c2.4,1,3.3,3.4,4.5,5.4c19.3,33.6,38.8,67,58,100.6
		c0.4,11.4,0.1,22.9,0.1,34.3C92.3,170.7,62.5,118.8,32.5,66.9z"/>
	<path class="st0" d="M189.4,82.5c9.3-5.4,18.7-10.6,27.9-16c-9.2,16.9-19.2,33.4-28.7,50.2c-20.3,35.3-40.8,70.6-61.1,106
		c-0.2-10.2,0-20.4-0.1-30.7c0.1-1.6-0.3-3.4,0.7-4.8c19.2-33.2,38.3-66.4,57.5-99.6C186.7,85.9,187.4,83.6,189.4,82.5z"/>
	<path class="st0" d="M77.5,89.7c31.6,0,63.2,0,94.8,0c-15.5,27.1-31.2,54-46.7,81.1c-0.3,0-0.9,0.1-1.2,0.1
		C108.7,143.8,93.2,116.7,77.5,89.7z"/>
	<path class="st0" d="M0,130.7c1,16.6,4.9,33.1,12.2,48.1c12.4,26.1,34.1,47.6,60.4,59.6c14.2,6.7,29.8,10.2,45.4,11.5H0V130.7z"/>
</g>
<g id="_x23_f27520ff">
	<path class="st1" d="M119.2,0h11.9c33.2,1.8,65.6,17.1,87.5,42.3c18.7,21,29.6,48.4,31.3,76.4v12.4c-1.6,27.8-12.4,55.1-30.8,76
		c-22.1,25.7-55.2,41.4-89.1,42.9H118c-15.6-1.3-31.2-4.8-45.4-11.5c-26.3-12.1-48-33.5-60.4-59.6C4.9,163.8,1,147.3,0,130.7V118
		c1.9-27.8,12.7-54.9,31.3-75.7C53.3,17,85.9,1.7,119.2,0 M34.8,62.3c9.7,5.2,19.2,10.9,28.8,16.3c1.3,0.9,2.9,0.6,4.4,0.7
		c39-0.2,77.9,0.2,116.8-0.2c10.2-5.3,19.8-11.5,30-16.8c-8.6-0.4-17.3-0.1-25.9-0.2C137.6,62.2,86.2,62,34.8,62.3 M32.5,66.9
		c30,51.9,59.9,103.8,89.9,155.7c0-11.4,0.2-22.9-0.1-34.3c-19.2-33.6-38.7-67-58-100.6c-1.2-2-2.2-4.5-4.5-5.4
		C50.6,77.2,41.7,71.7,32.5,66.9 M189.4,82.5c-2,1.1-2.7,3.3-3.8,5.1c-19.1,33.2-38.3,66.4-57.5,99.6c-1,1.4-0.6,3.2-0.7,4.8
		c0.1,10.2-0.1,20.4,0.1,30.7c20.2-35.4,40.7-70.6,61.1-106c9.5-16.8,19.5-33.2,28.7-50.2C208.1,72,198.7,77.2,189.4,82.5
		 M77.5,89.7c15.7,27,31.2,54.2,46.9,81.2c0.3,0,0.9-0.1,1.2-0.1c15.6-27,31.2-54,46.7-81.1C140.7,89.7,109.1,89.6,77.5,89.7z"/>
</g>
</svg>
